!!!!SEGMENT: pl-kozmzk--mzk-m-159--026_walczynski-franciszek--praeludia-organi-op-5-moderato.krn
!!!cenid: 18xx:2769
!!!COM: Walczyński, Franciszek
!!!COM-rismID: pe30021989
!!!CDT: ~1852-1937
!!!CNT: Polish
!!!GTL: Praeludia organi op. 5
!!!OTL: 26. Moderato
!!!PDT: 1894
!!!AGN: Secular; Prelude
!!!SMS-siglum: PL-KOZmzk
!!!SMS-shelfmark: mzk/m/159
!!!SMS-shelfwork: 026 G
!!!SMS-variant:
!!!SMS-altvar:
!!!NIFC-rismSourceID: 1001084394
!!!NIFC-rismChildID: 1001118827
!!!NIFC-islandoraID: pl-kozmzk:2265
!!!URL-pdf-islandora: https://repozytorium.nifc.pl/islandora/object/pl-kozmzk%3A2265/datastream/PDF/view
!!!URL-scan: https://polish.musicsources.pl/pl/lokalizacje/galeria/druki-muzyczne/7406 @EN{Scan on Polish Music Sources Website} @PL{Skany w portalu Dziedzictwo Muzyki Polskiej w otwartym dostępie}
!!!ONB-nifc: UWAGA: numeracja plików zgodna z numeracją źrodłową
!!!OMD: 26. Moderato.
!!!AIN: 1 empty 1 organ
!!!key:
**kern	**kern	**dynam
*part2	*part1	*part1
*staff2	*staff1	*
*Iempty	*Iorgan	*
*	*I"[Organi]	*
*clefF4	*clefG2	*
*k[f#c#g#d#a#]	*k[f#c#g#d#a#]	*
*a-:	*a-:	*
*M4/4	*M4/4	*
*met(c)	*met(c)	*
=1	=1	=1
*^	*^	*
(2.G#/	(2GG#\	(2b/	2d#\	p
.	4C#\	4a#/	4e\	.
4A#/	4C##X\	4g#/	4e#X\	.
=2	=2	=2	=2	=2
2A#/	4D#\	2f##X/	[1d#\	.
!	!LO:N:acc=n#	!	!	!
.	4C#\	.	.	.
4G#/	4BB\	4g#/	.	.
4F##X/)	4AA#\)	4a#/)	.	.
=3	=3	=3	=3	=3
([1G#/	(2GG#\	(2b/	2d#\]	.
.	4C#\	4cc#/	4e\	<
.	4C##X\	4b/	4e#X\	.
=4	=4	=4	=4	=4
4G#/]	1D#\)	1a#/)	1d#\	.
4F##X/	.	.	.	[
4E#X/	.	.	.	.
4F##/)	.	.	.	.
=5	=5	=5	=5	=5
[1d#/	4r	(2.dd#/	4r	f
.	(4D#\	.	(4f##X\	.
.	4E#X\	.	4g#\	.
.	4F##X\	4cc#/	4a#\	.
=6	=6	=6	=6	=6
2d#/]	4G#\	4b/	1g#\)	.
!	!LO:N:acc=n#	!	!	!
.	4F#\	4b#X/	.	.
2c#/	2E\)	4cc#/	.	.
.	.	4gg#/	.	.
=7	=7	=7	=7	=7
(4A#/	(4F#\	2.ff#/	4cc#\	.
4B/	4G#\	.	[2.f#\	.
4B#X/	4G##X\	.	.	.
4c#/	4A#\	([4ee/)	.	.
=8	=8	=8	=8	=8
1B/)	1B\)	4ee/]	1f#\]	>
.	.	4dd#/	.	.
.	.	4cc##X/	.	.
.	.	[4dd#/)	.	]]
=9	=9	=9	=9	=9
(2e/	(2F##X\	(4dd#/]	2a#\	pp
!	!	!LO:N:acc=n#	!	!
.	.	2cc#/	.	.
4d#/	4G#\	.	([2g#\	.
4c##X/	4E#X\	4b/	.	.
=10	=10	=10	=10	=10
1d#/)	1D#\)	1a#/)	4g#\]	.
.	.	.	4f##X\	.
.	.	.	4e#X\	.
.	.	.	4f##\)	.
=11	=11	=11	=11	=11
!LO:TX:b:i:t=Ped.	!	!	!	!
(2.G#/	(4G#\	(2b/	2d#\	p <
.	4BB\	.	.	.
.	4C#\	4a#/	4en\	.
4A#/	4C##X\	4g#/	4e#X\	.
=12	=12	=12	=12	=12
2A#/	4D#\	2f##X/	2.d#\	[
!	!LO:N:acc=n#	!	!	!
.	4C#\	.	.	.
2G#/)	4BB\	4g#/	.	>
.	4C#\	[4cc#/)	4en\	]]
=13	=13	=13	=13	=13
(2G#/	1D#\	(4cc#/]	(2d#\	.
!	!	!LO:TX:a:i:t=rit.	!	!
.	.	2b/	.	.
2F##X/	.	.	2c#\	.
.	.	4a#/	.	.
=14	=14	=14	=14	=14
4G#/	1GG#\;)	1g#/;)	4B\	pp
4E/	.	.	4c#\	.
2D#/)	.	.	2B\)	.
*v	*v	*	*	*
*	*v	*v	*
==	==	==
*-	*-	*-
!!!system-decoration: {(s1,s2)}
!!!EED: Andrzej Borzym
!!!EEV: 2021-08-08
!!!ENC: Katarzyna Serwa
!!!END: 2021-07-26
!!!YEC: Copyright 2022 Narodowy Instytut Fryderyka Chopina (https://polishscores.org)
!!!YEM: License CC-BY-4.0 (https://creativecommons.org/licenses/by/4.0)
